/* XPM */
static const char * const neotlk_icon_xpm[] = {
/* columns rows colors chars-per-pixel */
"32 32 252 2 ",
"   c None",
".  c black",
"X  c #010000",
"o  c #000100",
"O  c #010100",
"+  c #020200",
"@  c #030300",
"#  c #040300",
"$  c #050300",
"%  c #060300",
"&  c #070300",
"*  c #050500",
"=  c #070500",
"-  c #060600",
";  c #090400",
":  c #1D1A00",
">  c #271D00",
",  c #242100",
"<  c #302A00",
"1  c #332C00",
"2  c #3B3100",
"3  c #4C4100",
"4  c #4E4500",
"5  c #514800",
"6  c #524B00",
"7  c #5D5201",
"8  c #5F5300",
"9  c #5F5700",
"0  c #605201",
"q  c #635401",
"w  c #645500",
"e  c #625900",
"r  c #625A00",
"t  c #635A00",
"y  c #655801",
"u  c #665D00",
"i  c #6A5A01",
"p  c #6A5D01",
"a  c #6C5C01",
"s  c #6B6000",
"d  c #6A6100",
"f  c #6E6100",
"g  c #6E6101",
"h  c #6D6200",
"j  c #6E6201",
"k  c #6F6400",
"l  c #706500",
"z  c #716600",
"x  c #726600",
"c  c #746700",
"v  c #716800",
"b  c #746801",
"n  c #776A01",
"m  c #786901",
"M  c #796901",
"N  c #786B01",
"B  c #796B01",
"V  c #7B6E01",
"C  c #7B7200",
"Z  c #806F00",
"A  c #837101",
"S  c #837300",
"D  c #807400",
"F  c #867400",
"G  c #847700",
"H  c #827900",
"J  c #877900",
"K  c #877B00",
"L  c #887900",
"P  c #8E7F00",
"I  c #958201",
"U  c #9A8801",
"Y  c #9D8B01",
"T  c #988D00",
"R  c #9E8D00",
"E  c #9A9300",
"W  c #9F9000",
"Q  c #A08D00",
"!  c #AB9C00",
"~  c #AF9C01",
"^  c #ABA100",
"/  c #A9A400",
"(  c #B4A701",
")  c #BCA601",
"_  c #B4AB01",
"`  c #BCAA00",
"'  c #BBAF01",
"]  c #C1B300",
"[  c #C1B301",
"{  c #C5B201",
"}  c #C2B400",
"|  c #C2B601",
" . c #C6B700",
".. c #CCB701",
"X. c #C6BB00",
"o. c #CBB901",
"O. c #CFBA01",
"+. c #CEBB01",
"@. c #CBBC01",
"#. c #CCBE01",
"$. c #D4BA01",
"%. c #D1BD00",
"&. c #D0BC01",
"*. c #D5BE01",
"=. c #D6BE01",
"-. c #CCC001",
";. c #CDC001",
":. c #CFC001",
">. c #CFC101",
",. c #D0C101",
"<. c #D1C201",
"1. c #D4C101",
"2. c #D6C001",
"3. c #D1C601",
"4. c #D8C101",
"5. c #D9C301",
"6. c #DBC401",
"7. c #DCC701",
"8. c #DEC701",
"9. c #D8CB01",
"0. c #DDC901",
"q. c #DEC801",
"w. c #DFC901",
"e. c #DDCA01",
"r. c #DDCB01",
"t. c #DFCB01",
"y. c #DECD01",
"u. c #DAD200",
"i. c #DED001",
"p. c #DFD301",
"a. c #D8D401",
"s. c #DAD701",
"d. c #DADA01",
"f. c #DBDB01",
"g. c #E0C901",
"h. c #E0CA01",
"j. c #E1CA01",
"k. c #E3CA01",
"l. c #E2CB01",
"z. c #E3CB01",
"x. c #E5CB01",
"c. c #E3CC01",
"v. c #E4CC01",
"b. c #E5CC01",
"n. c #E5CE01",
"m. c #E7CE01",
"M. c #E7CF01",
"N. c #E1D001",
"B. c #E7D101",
"V. c #E8D201",
"C. c #E9D201",
"Z. c #EAD301",
"A. c #ECD101",
"S. c #ECD201",
"D. c #EDD201",
"F. c #EDD301",
"G. c #EBD401",
"H. c #EBD701",
"J. c #EDD401",
"K. c #ECD501",
"L. c #EDD501",
"P. c #EED401",
"I. c #EED501",
"U. c #EDD601",
"Y. c #ECD701",
"T. c #EED601",
"R. c #EFD701",
"E. c #EADA01",
"W. c #EFD801",
"Q. c #EBDF01",
"!. c #F0D601",
"~. c #F0D901",
"^. c #F2D901",
"/. c #F3D901",
"(. c #F5D901",
"). c #F6D901",
"_. c #F5DA01",
"`. c #F5DB01",
"'. c #F3DC01",
"]. c #F3DE01",
"[. c #F6DD01",
"{. c #F5DE01",
"}. c #E9E101",
"|. c #EAE201",
" X c #ECE301",
".X c #EFE401",
"XX c #ECE901",
"oX c #F0E101",
"OX c #F4E201",
"+X c #F4E301",
"@X c #F6E201",
"#X c #F7E201",
"$X c #F2E401",
"%X c #F0E601",
"&X c #F3E601",
"*X c #F5E601",
"=X c #F5E701",
"-X c #FBE001",
";X c #FAE101",
":X c #FBE101",
">X c #FAE201",
",X c #FBE201",
"<X c #FBE301",
"1X c #FCE301",
"2X c #FDE301",
"3X c #F8E501",
"4X c #F8E701",
"5X c #FBE601",
"6X c #F6E901",
"7X c #F5EA01",
"8X c #F5EB01",
"9X c #F3EC01",
"0X c #F1EF01",
"qX c #F7EF01",
"wX c #F9EB01",
"eX c #FBEA01",
"rX c #FFE901",
"tX c #FDEA01",
"yX c #FFEB01",
"uX c #F9ED01",
"iX c #FBEE01",
"pX c #FDED01",
"aX c #FCEF01",
"sX c #FEEF01",
"dX c #F1F001",
"fX c #F5F501",
"gX c #F6F601",
"hX c #F7F701",
"jX c #FAF001",
"kX c #FDF101",
"lX c #FFF201",
"zX c #F9F401",
"xX c #FAF501",
"cX c #FEF401",
"vX c #FCF601",
"bX c #FCF701",
"nX c #FFF601",
"mX c #FFF701",
"MX c #F8F801",
"NX c #F9F901",
"BX c #FBF901",
"VX c #FAFA01",
"CX c #FBFB01",
"ZX c #FCF801",
"AX c #FCF901",
"SX c #FFF801",
"DX c #FCFA01",
"FX c #FFFB01",
"GX c #FCFC01",
"HX c #FDFD01",
"JX c #FEFE01",
"KX c #FFFF01",
/* pixels */
"                                                                ",
"                                                                ",
"                                                                ",
"                                                                ",
"                                                                ",
"                                                                ",
". . . . . . . . . . . . .             . . . .     . . & .       ",
"r !.C.h.c.v.c.h.h.c.w./.+.            f B.rXJ     ! gX{ :       ",
"c dXrX:X1X1X:X1X1X:X#XSXN.            S XXHXR     uXxXI         ",
"u '.J.C././.W.J.D.J.J.rX7.            m |.HX    T HX3.2         ",
"Z 0XSXaX{.J.:XkXCXaX`.rXw.            m Q.HX6 > u.HXU           ",
"< S c G v.mX%.D 9 P y.mX5.            m  XCX6 w CXa.3           ",
"      : -.CX^       | HX*.            b 0XwXG / HX~             ",
"        w.HX .      [ CX*.            m 8X#X$.&X.X0             ",
"        w.CX|       @.CX*.            m *X4Xv.CX(               ",
"        w.CX|       -.CX*.            V 8X'.J.kXm               ",
"        w.CX|       -.CX*.            b &X4Xh.xX'               ",
"        w.CX|       -.CX2.            p oX4XD.wX*Xf             ",
"        w.CX|       #.CX..            m 8X#X) 2.HX_             ",
"        w.CX|       -.gX6.z f z s H , a |.HX8 J HXG.Y r c k z r ",
"        w.CX|       <.qXG.mXSXmXjXHXC y a.HX4 1 E.aX#XHXmXSXSX{.",
"        w.CX[       <.qXv.J.D.D.x.SXs q d.HX    E HXv.J.D.J.J.%.",
"        p.CXX.      9.gX`.:X:X:X`.HXv i d.HXQ     &XgX`.:X:X4X7.",
"        5.CX`       o.4Xw.C.C.C.h.mXf 8 p.mXL     W uXh.C.C.J.+.",
"        . & &       & & & . . . & ; . . = = .       = & . . . . ",
"                                                                ",
"                                                                ",
"                                                                ",
"                                                                ",
"                                                                ",
"                                                                ",
"                                                                "
};
